client/public/img/game/buildings/crane_base_part.svg

<?xml version="1.0" encoding="UTF-8" standalone="no"?>
<!-- Created with Inkscape (http://www.inkscape.org/) -->

<svg
   width="118.06592"
   height="629.1488"
   viewBox="0 0 31.238273 166.46229"
   version="1.1"
   id="svg2068"
   inkscape:version="1.3.2 (1:1.3.2+202404261509+091e20ef0f)"
   sodipodi:docname="crane_base_part.svg"
   xmlns:inkscape="http://www.inkscape.org/namespaces/inkscape"
   xmlns:sodipodi="http://sodipodi.sourceforge.net/DTD/sodipodi-0.dtd"
   xmlns="http://www.w3.org/2000/svg"
   xmlns:svg="http://www.w3.org/2000/svg">
  <sodipodi:namedview
     id="namedview2070"
     pagecolor="#505050"
     bordercolor="#ffffff"
     borderopacity="1"
     inkscape:pageshadow="0"
     inkscape:pageopacity="0"
     inkscape:pagecheckerboard="1"
     inkscape:document-units="px"
     showgrid="false"
     inkscape:zoom="1.3524956"
     inkscape:cx="-112.38484"
     inkscape:cy="384.84414"
     inkscape:window-width="2560"
     inkscape:window-height="1368"
     inkscape:window-x="0"
     inkscape:window-y="0"
     inkscape:window-maximized="1"
     inkscape:current-layer="layer1"
     inkscape:showpageshadow="2"
     inkscape:deskcolor="#d1d1d1" />
  <defs
     id="defs2065" />
  <g
     inkscape:label="Layer 1"
     inkscape:groupmode="layer"
     id="layer1"
     transform="translate(-141.18326,-63.884699)">
    <rect
       style="fill:#272727;fill-opacity:1;stroke:none;stroke-width:2.35551;stroke-linecap:square;stroke-linejoin:miter;paint-order:fill markers stroke;stop-color:#000000"
       id="rect12608-1"
       width="10.796866"
       height="24.678556"
       x="145.4198"
       y="205.65909"
       ry="2.8434758" />
    <rect
       style="fill:#4d4d4d;stroke:none;stroke-width:1.87294;stroke-linecap:square;stroke-linejoin:miter;paint-order:fill markers stroke;stop-color:#000000"
       id="rect12610-8"
       width="2.978446"
       height="24.265575"
       x="149.32901"
       y="205.85297"
       ry="1.489223" />
    <rect
       style="fill:#272727;fill-opacity:1;stroke:none;stroke-width:2.35551;stroke-linecap:square;stroke-linejoin:miter;paint-order:fill markers stroke;stop-color:#000000"
       id="rect12608-2-0"
       width="10.796866"
       height="24.678556"
       x="157.33647"
       y="205.66843"
       ry="2.8434758" />
    <rect
       style="fill:#4d4d4d;stroke:none;stroke-width:1.87294;stroke-linecap:square;stroke-linejoin:miter;paint-order:fill markers stroke;stop-color:#000000"
       id="rect12610-3-8"
       width="2.978446"
       height="24.265575"
       x="161.24567"
       y="205.8623"
       ry="1.489223" />
    <rect
       style="fill:#272727;fill-opacity:1;stroke:none;stroke-width:2.35551;stroke-linecap:square;stroke-linejoin:miter;paint-order:fill markers stroke;stop-color:#000000"
       id="rect12608-5-7"
       width="10.796866"
       height="24.678556"
       x="145.4198"
       y="-88.572601"
       ry="2.8434758"
       transform="scale(1,-1)" />
    <rect
       style="fill:#4d4d4d;stroke:none;stroke-width:1.87294;stroke-linecap:square;stroke-linejoin:miter;paint-order:fill markers stroke;stop-color:#000000"
       id="rect12610-4-5"
       width="2.978446"
       height="24.265575"
       x="149.32901"
       y="-88.378723"
       ry="1.489223"
       transform="scale(1,-1)" />
    <rect
       style="fill:#272727;fill-opacity:1;stroke:none;stroke-width:2.35551;stroke-linecap:square;stroke-linejoin:miter;paint-order:fill markers stroke;stop-color:#000000"
       id="rect12608-2-8-8"
       width="10.796866"
       height="24.678556"
       x="157.33647"
       y="-88.563255"
       ry="2.8434758"
       transform="scale(1,-1)" />
    <rect
       style="fill:#4d4d4d;stroke:none;stroke-width:1.87294;stroke-linecap:square;stroke-linejoin:miter;paint-order:fill markers stroke;stop-color:#000000"
       id="rect12610-3-6-2"
       width="2.978446"
       height="24.265575"
       x="161.24567"
       y="-88.369377"
       ry="1.489223"
       transform="scale(1,-1)" />
    <g
       id="g1"
       transform="translate(0,0.70310498)">
      <path
         id="rect11759-6-5"
         style="fill:#cab51d;fill-opacity:1;stroke:#443d0a;stroke-width:2.507;stroke-linecap:square;stroke-linejoin:miter;stroke-dasharray:none;stroke-opacity:1;paint-order:fill markers stroke;stop-color:#000000"
         d="m 146.84631,-79.697691 c -1.11833,0 -2.01849,-0.900671 -2.01849,-2.018998 v -25.940021 c -1.44633,-1.00825 -2.39106,-2.6819 -2.39106,-4.58628 v -1.4056 -65.5283 -1.40612 c 0,-1.9044 0.94471,-3.57803 2.39106,-4.58628 v -25.94002 c 0,-1.11833 0.90016,-2.01848 2.01849,-2.01848 h 19.8608 c 1.11833,0 2.01848,0.90015 2.01848,2.01848 v 25.94054 c 1.44602,1.00829 2.39107,2.68162 2.39107,4.58576 v 1.40612 65.5283 1.4056 c 0,1.90412 -0.94507,3.57747 -2.39107,4.58577 v 25.940531 c 0,1.118327 -0.90015,2.018998 -2.01848,2.018998 z"
         transform="scale(1,-1)" />
      <rect
         style="fill:none;fill-opacity:1;stroke:#453d0a;stroke-width:2.507;stroke-linecap:square;stroke-linejoin:round;stroke-dasharray:none;stroke-opacity:1"
         id="rect3"
         width="28.644337"
         height="77.615402"
         x="142.5237"
         y="107.6053"
         ry="5.3414993" />
    </g>
  </g>
</svg>

<?xml version="1.0" encoding="UTF-8" standalone="no"?>
<!-- Created with Inkscape (http://www.inkscape.org/) -->

<svg
   width="122.63371"
   height="629.1488"
   viewBox="0 0 32.446835 166.46229"
   version="1.1"
   id="svg2068"
   inkscape:version="1.3.2 (1:1.3.2+202404261509+091e20ef0f)"
   sodipodi:docname="crane_base_part.svg"
   xmlns:inkscape="http://www.inkscape.org/namespaces/inkscape"
   xmlns:sodipodi="http://sodipodi.sourceforge.net/DTD/sodipodi-0.dtd"
   xmlns="http://www.w3.org/2000/svg"
   xmlns:svg="http://www.w3.org/2000/svg">
  <sodipodi:namedview
     id="namedview2070"
     pagecolor="#505050"
     bordercolor="#ffffff"
     borderopacity="1"
     inkscape:pageshadow="0"
     inkscape:pageopacity="0"
     inkscape:pagecheckerboard="1"
     inkscape:document-units="px"
     showgrid="false"
     inkscape:zoom="1.3524956"
     inkscape:cx="-17.744975"
     inkscape:cy="300.55551"
     inkscape:window-width="2560"
     inkscape:window-height="1368"
     inkscape:window-x="0"
     inkscape:window-y="0"
     inkscape:window-maximized="1"
     inkscape:current-layer="layer1"
     inkscape:showpageshadow="2"
     inkscape:deskcolor="#d1d1d1" />
  <defs
     id="defs2065" />
  <g
     inkscape:label="Layer 1"
     inkscape:groupmode="layer"
     id="layer1"
     transform="translate(-140.55315,-63.884703)">
    <rect
       style="fill:#272727;stroke:none;stroke-width:2.35551;stroke-linecap:square;stroke-linejoin:miter;paint-order:fill markers stroke;stop-color:#000000;fill-opacity:1"
       id="rect12608-1"
       width="10.796866"
       height="24.678556"
       x="145.4198"
       y="205.65909"
       ry="2.8434758" />
    <rect
       style="fill:#4d4d4d;stroke:none;stroke-width:1.87294;stroke-linecap:square;stroke-linejoin:miter;paint-order:fill markers stroke;stop-color:#000000"
       id="rect12610-8"
       width="2.978446"
       height="24.265575"
       x="149.32901"
       y="205.85297"
       ry="1.489223" />
    <rect
       style="fill:#272727;stroke:none;stroke-width:2.35551;stroke-linecap:square;stroke-linejoin:miter;paint-order:fill markers stroke;stop-color:#000000;fill-opacity:1"
       id="rect12608-2-0"
       width="10.796866"
       height="24.678556"
       x="157.33647"
       y="205.66843"
       ry="2.8434758" />
    <rect
       style="fill:#4d4d4d;stroke:none;stroke-width:1.87294;stroke-linecap:square;stroke-linejoin:miter;paint-order:fill markers stroke;stop-color:#000000"
       id="rect12610-3-8"
       width="2.978446"
       height="24.265575"
       x="161.24567"
       y="205.8623"
       ry="1.489223" />
    <rect
       style="fill:#272727;stroke:none;stroke-width:2.35551;stroke-linecap:square;stroke-linejoin:miter;paint-order:fill markers stroke;stop-color:#000000;fill-opacity:1"
       id="rect12608-5-7"
       width="10.796866"
       height="24.678556"
       x="145.4198"
       y="-88.572601"
       ry="2.8434758"
       transform="scale(1,-1)" />
    <rect
       style="fill:#4d4d4d;stroke:none;stroke-width:1.87294;stroke-linecap:square;stroke-linejoin:miter;paint-order:fill markers stroke;stop-color:#000000"
       id="rect12610-4-5"
       width="2.978446"
       height="24.265575"
       x="149.32901"
       y="-88.378723"
       ry="1.489223"
       transform="scale(1,-1)" />
    <rect
       style="fill:#272727;stroke:none;stroke-width:2.35551;stroke-linecap:square;stroke-linejoin:miter;paint-order:fill markers stroke;stop-color:#000000;fill-opacity:1"
       id="rect12608-2-8-8"
       width="10.796866"
       height="24.678556"
       x="157.33647"
       y="-88.563255"
       ry="2.8434758"
       transform="scale(1,-1)" />
    <rect
       style="fill:#4d4d4d;stroke:none;stroke-width:1.87294;stroke-linecap:square;stroke-linejoin:miter;paint-order:fill markers stroke;stop-color:#000000"
       id="rect12610-3-6-2"
       width="2.978446"
       height="24.265575"
       x="161.24567"
       y="-88.369377"
       ry="1.489223"
       transform="scale(1,-1)" />
    <path
       id="rect11759-6-5"
       style="fill:#cab51d;fill-opacity:1;stroke:#443d0a;stroke-width:2.507;stroke-linecap:square;stroke-linejoin:miter;stroke-opacity:1;paint-order:fill markers stroke;stop-color:#000000;stroke-dasharray:none"
       d="M 146.84631 -79.697691 C 145.72798 -79.697691 144.82782 -80.598362 144.82782 -81.716689 L 144.82782 -107.65671 C 143.38149 -108.66496 142.43676 -110.33861 142.43676 -112.24299 L 142.43676 -113.64859 L 142.43676 -179.17689 L 142.43676 -180.58301 C 142.43676 -182.48741 143.38147 -184.16104 144.82782 -185.16929 L 144.82782 -211.10931 C 144.82782 -212.22764 145.72798 -213.12779 146.84631 -213.12779 L 166.70711 -213.12779 C 167.82544 -213.12779 168.72559 -212.22764 168.72559 -211.10931 L 168.72559 -185.16877 C 170.17161 -184.16048 171.11666 -182.48715 171.11666 -180.58301 L 171.11666 -179.17689 L 171.11666 -113.64859 L 171.11666 -112.24299 C 171.11666 -110.33887 170.17159 -108.66552 168.72559 -107.65722 L 168.72559 -81.716689 C 168.72559 -80.598362 167.82544 -79.697691 166.70711 -79.697691 L 146.84631 -79.697691 z "
       transform="scale(1,-1)" />
    <rect
       style="fill:none;fill-opacity:1;stroke:#453d0a;stroke-width:2.507;stroke-linecap:square;stroke-linejoin:round;stroke-dasharray:none;stroke-opacity:1"
       id="rect3"
       width="28.644337"
       height="77.615402"
       x="142.5237"
       y="107.6053"
       ry="5.3414993" />
  </g>
</svg>
